!!!!SEGMENT: 007-1-KI-004.krn
!!!COM: Chopin, Fryderyk
!!!NIFC-ComViaf:71319254
!!!OTL:Mazurka No. 4.
!!!AFR:mazurka
!!!OPS:Op. 7
!!!OPR:Cinq Mazurkas
!!!OCL:Friedrich Kistner
!!!NIFC-rismID: 300605326
!!!OMD: PRESTO MA NON TROPPO.
!!!OMD: M.M. [half.] = 76
!!!system-decoration: {(s1,s2)}
**kern	**kern	**dynam
*part1	*part1	*part1
*staff2	*staff1	*
*>[A,B,B,C,D,E]	*>[A,B,B,C,D,E]	*
*clefF4	*clefG2	*
*k[b-e-a-d-]	*k[b-e-a-d-]	*
*M3/4	*M3/4	*
*MM189	*MM189	*
*A-:	*A-:	*
8r	8e-	.
=1	=1	=1
*>A	*>A	*>A
!LO:TX:b:B:i:t=legato.	!	!
(<4e- 4A-	(12a-L	f
.	12b-	.
.	12a-J)	.
4f-X^> 4d- 4A-	(8gL	.
.	8a-	.
4f- 4d- 4A-	8b-	.
.	8ccJ)	.
=2	=2	=2
4f-X 4B- 4G	(12dd-L	.
.	12ee-	.
.	12dd-J)	.
4e- 4c 4A-	(8ccL	<
.	8dd-J	.
4e- 4B- 4G	(4ee-)	[
=3	=3	=3
8fn 8d- 8A- 8F)	8aa-`L)	fz
8r	16r	.
.	(16dd-Jk	p
(4e- 4A- 4E-	8ccL	.
.	8ee-	.
4e- 4c 4E-	8a-	.
.	8anJ)	.
=4	=4	=4
4e- 4d- 4E-	(<8b-L	.
.	8dd-	.
4e- 4d- 4E-	8f	.
.	8gJ)	.
4e- 4c 4A-)	[4a-^<	.
=5	=5	=5
!!linebreak:original
4e- 4c 4A-	(<12a-L]	f
.	12b-	.
.	12a-J)	.
4f-X^< 4d- 4A-	(8gL	.
.	8a-	<
(4f- 4d- 4A-	8b-	.
.	8ccJ)	[
=6	=6	=6
4f-X^< 4B- 4G	(>12dd-L	>
.	12ee-	.
.	>12dd-J)	]
4e- 4c 4A-	(8ccL	.
.	8dd-	.
4e- 4B- 4G	8ddn	.
.	8ee-J)	.
=7	=7	=7
.	8qee-/	.
8fn 8d- 8A- 8F)	8aa-`L	.
8r	16r	.
.	(16dd-Jk	p
4e- 4A- 4E-	8ccL	.
.	8ee-	.
4e- 4c 4E-	8a-	.
.	8anJ)	.
=8	=8	=8
4e- 4d- 4E-	(8b-\L	.
.	8dd-	.
4e- 4d- 4E-	8f	.
.	8gJ	.
4e- 4c 4A-)	8a-)	.
.	16r	.
.	16bn/	.
=9!|:	=9!|:	=9!|:
*>B	*>B	*>B
*ped	*	*
!	!LO:TX:b:B:i:t=scherz.	!
4C\	(>4cc	.
(4en 4c 4G	8ccc`L)	.
.	16r	.
.	(16bb-Jk	.
4f 4c 4F	[4aa-^<)	.
*Xped	*	*
.	.	.
=10	=10	=10
4f 4Bn 4G	8aa-L]	.
.	8gg	.
.	8qbb-/	.
4f 4B 4G	(>8aa-	.
.	8ggJ)	.
!	!LO:TX:t=brak początku łuku	!
4f 4B 4G	(4ddn^	.
=11	=11	=11
!!pagebreak:original
4e-' 4c 4A-)	8cc`L)	.
.	(>8cc	.
(4en 4c 4G	8ccc)	.
.	16r	.
.	(16bb-Jk	.
4f 4c 4F^	[4aa-)	.
=12	=12	=12
4f 4Bn 4G	8aa-L]	.
.	8gg	.
.	(<8qbb-/	.
4f 4B 4G	8aa-`)	.
.	16r	.
.	(>16ggJk	.
4f 4B 4G)	4ddn)	.
=13	=13	=13
(>4e- 4c 4A-	4cc	p
4d-X^< 4A- 4F	8.dd-X^L	.
.	16ffJk	.
4dn 4A- 4F	4cc^>	.
=14	=14	=14
4f 4dn 4G	8bn/L	.
.	16r	.
.	(16gk	.
4f 4d 4G	8b	.
.	8ddnJ)	.
4e- 4c	[4cc^	.
=15	=15	=15
4e- 4c 4A-)	4cc]	.
(4d-X^< 4A- 4F	8.dd-X^L	.
.	(>16ffJk	.
4dn 4A- 4F	[4cc^)	<
.	.	.
=16	=16	=16
!	!	!LO:HP:b=2
!	!LO:TX:t= (Tu powinno byc "cres.", ale nie da się zakodować przez <, ponieważ wtedy znika znak graficzny na dole)	!
4dn 4B- 4G)	4.cc]	[<
4e- 4B- 4G	.	.
.	8b-L	.
4f-X 4d-X 4G	8.cc^	.
.	16b-Jk	[
=17	=17	=17
!!linebreak:original
4e- 4c 4A-	(12a-L	f
.	12b-	.
.	12a-J)	.
4f-X^< 4d- 4A-	8gL	<
.	8a-	.
4f- 4d- 4A-	8b-	.
.	8ccJ	[
=18	=18	=18
4f-X 4B- 4G	(12dd-L	.
.	12ee-	.
.	12dd-J)	.
4e- 4c 4A-	(>8ccL	.
.	8dd-J)	.
4e- 4B- 4G	(4ee-^<	.
=19	=19	=19
8fn 8d- 8A- 8F	8aa-`L)	fz
8r	16r	.
.	(>16dd-Jk	p
(4e- 4A- 4E-	8ccL)	.
.	(8ee-	.
4e- 4c 4E-	8a-	.
.	8anJ	.
=20	=20	=20
4e- 4d- 4E-	8b-\L	.
.	8dd-	.
4e- 4d- 4E-	8f	.
.	8gJ)	.
4e- 4c 4A-)	[</4a-^>	.
=21	=21	=21
(4e- 4c 4A-	(</12a-L]	f
.	12b-	.
.	12a-J)	.
4f-X^< 4d- 4A-	8g/L	.
.	16r	.
.	(16a-k	.
4f- 4d- 4A-	8b-	.
.	8ccJ)	.
=22	=22	=22
4f-X^< 4B- 4G	(>12dd-L	.
.	12ee-	.
.	12dd-J)	.
4e- 4c 4A-	8cc'L	.
.	16r	.
.	(16dd-k	.
.	8qdd-/	.
4e- 4B- 4G	8ddn	.
.	8ee-J	.
=23	=23	=23
!!linebreak:original
.	8qee-/	.
8fn 8d- 8A- 8F)	8aa-`L)	.
8r	16r	.
.	(16dd-Jk	p
(4e- 4A- 4E-	8ccL)	.
.	(8ee-	.
4e- 4c 4E-	8a-	.
.	8anJ	.
=24	=24	=24
4e- 4d- 4E-	8b-\L	.
.	8dd-	.
4e- 4d- 4E-	8f	.
.	8gJ)	.
4e- 4c 4A-)	4a-^>/	.
=25:|!	=25:|!	=25:|!
*>C	*>C	*>C
*	*^	*
!LO:TX:a:B:i:t=dolcissimo.	!	!	!
4c 4A- 4D-	(>8gg-XL	4g-X	.
.	8ff	.	.
4c 4A- 4D-	8ee-	4g-	.
.	8ffJ	.	.
4d- 4A- 4D-	4dd-	4f^<	.
=26	=26	=26	=26
4e- 4B- 4D-	8b-L	4gn	.
.	8ee-	.	.
4e- 4An 4D-	8b-	4g-X	.
.	8ccJ	.	.
4e- 4A-X 4D-	4a-	4g-^<)	.
=27	=27	=27	=27
4c 4A- 4D-	(>8gg-XL	4g-X	.
.	8ff	.	.
4c 4A- 4D-	8ee-	4g-	.
.	8ffJ	.	.
4d- 4A- 4D-	4dd-	4f^<	.
=28	=28	=28	=28
4e- 4B- 4D-	8b-L	4gn	.
.	8ee-	.	.
4e- 4A- 4D-	8a-	4g-X	.
.	8ccJ)	.	.
4d- 4A- 4D-	(4dd-	4f^<	.
=29	=29	=29	=29
!!linebreak:original
!LO:TX:b:B:i:t=sempre legato.	!LO:TX:a:B:i:t=staccato.	!LO:TX:b:B:i:t=ritenuto.	!
4c 4A- 4D-	8gg-X'L	4g-X	p
.	8ff'	.	.
4c 4A- 4D-	8ee-'	4g-	.
.	8ff'	.	.
4d- 4A- 4D-	8dd-'	4f	.
.	8a-'J	.	.
=30	=30	=30	=30
4e- 4B- 4D-	8b-'L	4gn	.
.	8ee-'	.	.
4e- 4An 4D-	8b-'	4g-X	.
.	8cc'	.	.
4e- 4A-X 4D-	8a-'	4g-	.
.	8aa-'J	.	.
=31	=31	=31	=31
4c 4A- 4D-	8gg-X'L	4g-X	.
.	8ff'	.	.
4c 4A- 4D-	8ee-'	4g-	.
.	8ff'	.	.
4d- 4A- 4D-	8dd-'	4f	.
.	8a-'J	.	.
=32	=32	=32	=32
4e- 4B- 4D-	8b-'L	4gn	.
.	8ee-'	.	.
4e- 4A- 4D-	8a-'	4g-X	.
.	8cc'J	.	.
4A- 4D-	4dd-)	4f	.
=33||	=33||	=33||	=33||
*>D	*>D	*>D	*>D
*ped	*	*	*
.	.	.	.
!1	!	!LO:TX:a:B:i:t=molto rallent.	!
2An 2AAn	(8eenL 8cc#X	2en	pp
!LO:TX:a:B:i:t=sotto voce.	!	!	!
.	8ddnJ 8bn	.	.
.	4cc# 4an)	.	.
*Xped	*	*	*
!	!LO:S:s=1:note:problem:note-level slur	!	!
4A 4Dn	(>4ff#X^</ 4a/ 4f#X/	4ryy	.
=34	=34	=34	=34
*ped	*	*	*
.	.	.	.
2.An 2.AAn	2een 2cc#X	2.en^<	.
.	4cc# 4an	.	.
=35	=35	=35	=35
!!linebreak:original
2An	8eenL 8cc#X	2en	.
.	8ddnJ 8bn	.	.
!	!LO:TX:b:B:i:t=smorz.	!	!
.	4cc#) 4an	.	.
*Xped	*	*	*
4A 4Dn	4ff#X/ 4a/ 4f#X/	4ryy	.
=36	=36	=36	=36
*	*	*^	*
2An; 2AAn	2.een	2cc#X/;> 2an/	2.en\	.
!	!	!LO:TX:t=podwójna kreska taktowa	!	!
(4d-X^< 4G	.	4b-X^>	.	.
*	*v	*v	*v	*
=37|!	=37|!	=37|!
*>E	*>E	*>E
!	!LO:TX:a:Bi:t=a Tempo.	!
4e- 4c 4A-	(<12a-L	f
.	12b-	.
.	12a-J)	.
4f-X 4d- 4A-	(8gL	.
.	8a-	.
4f- 4d- 4A-	8b-	.
.	8ccJ)	.
=38	=38	=38
4f-X 4B- 4G	(12dd-L	.
.	12ee-	.
.	12dd-J)	.
4e- 4c 4A-	(8ccL	.
.	8dd-J)	.
4e- 4B- 4G	4ee-^	.
=39	=39	=39
8fn` 8d- 8A- 8F)	8aa-`L	.
8r	16r	.
.	(>16dd-Jk	p
4e- 4A- 4E-	8ccL	.
.	8ee-	.
4e- 4c 4E-	8a-	.
.	8anJ	.
=40	=40	=40
!!linebreak:original
4e- 4d- 4E-	8b-\L	.
.	8dd-	.
4e- 4d- 4E-	8f	.
.	8gJ	.
4e- 4c 4A-	[>4a-^<\)	.
=41	=41	=41
4e- 4c 4A-	(<12a-L]	f
.	12b-	.
.	12a-J)	.
4f-X 4d- 4A-	(8gL	.
.	8a-	.
4f- 4d- 4A-	8b-	.
.	8ccJ)	.
=42	=42	=42
4f-X 4B- 4G	(12dd-L	.
.	12ee-	.
.	>12dd-J)	.
4e- 4c 4A-	(>8ccL	.
.	16r	.
.	16dd-k	.
.	8qdd-/	.
4e- 4B- 4G	8ddn	.
.	8ee-J)	.
=43	=43	=43
.	8qee-/	.
8fn 8d- 8A- 8F	8aa-`	fz
16r;	16r;	.
16ryy	(16dd-	f
(4e- 4A- 4E-	8ccL	.
.	8ee-	.
4e- 4c 4E-	8a-	.
.	8anJ	.
=44	=44	=44
4e- 4d- 4E-	8b-\L	.
.	8dd-	.
4e- 4d- 4E-	8f	.
.	8gJ	.
4e- 4c 4A-)	4a-\)	.
==	==	==
*-	*-	*-
!!title: @{OTL}; @{OPS} @{ONM} publisher: @{OCL}
!!!RDF**dynam: < = "cres.",fontstyle="italic"
!!!RDF**dynam: > = "dim.",fontstyle="italic"
!!!RDF**kern: > = above
!!!RDF**kern: < = below
!!!ENC:Jacek Iwaszko
!!!END:2017-08-10
!!!EED: Jędrzej Mróz
!!!EST:2018-11-16
!!!EED2: Leszek Kubiak
!!!EST: 2018-12-19